logo/launchrock.svg

<?xml version="1.0" encoding="UTF-8" standalone="no"?>
<svg width="256px" height="271px" viewBox="0 0 256 271" version="1.1" xmlns="http://www.w3.org/2000/svg" xmlns:xlink="http://www.w3.org/1999/xlink" preserveAspectRatio="xMidYMid">
    <g>
        <path d="M99.8070819,202.833747 C189.955414,217.321872 189.955414,148.100831 188.345622,148.100831 L67.6112491,148.100831 C67.6112491,148.100831 22.537083,188.345622 8.04895822,201.223956 C14.4881248,226.980622 45.074166,252.737288 62.7818741,259.176455 C64.3916658,259.176455 96.5874986,207.663122 99.8070819,202.833747 L99.8070819,202.833747 Z M54.7329159,32.1958329 C54.7329159,14.4881248 46.6839577,1.42108547e-14 27.3664579,1.42108547e-14 C6.43916658,1.42108547e-14 0,14.4881248 0,32.1958329 L0,149.710623 C0,165.808539 3.21958329,181.906456 6.43916658,188.345622 L56.3427075,144.881248 C54.7329159,144.881248 54.7329159,45.074166 54.7329159,32.1958329 L54.7329159,32.1958329 Z M255.956871,32.1958329 C255.956871,14.4881248 247.907913,2.84217094e-14 228.590413,2.84217094e-14 C207.663122,2.84217094e-14 201.223956,14.4881248 201.223956,32.1958329 C201.223956,41.8545827 202.833747,114.295207 201.223956,159.369373 C201.223956,175.467289 178.686872,217.321872 127.17354,215.71208 C115.904998,215.71208 109.465832,215.71208 106.246249,214.102289 C103.026665,218.931664 78.8797906,260.786246 77.2699989,262.396038 C86.9287488,265.615621 107.85604,270.444996 127.17354,270.444996 C214.102289,270.444996 257.566663,215.71208 255.956871,143.271456 C255.956871,72.440624 255.956871,45.074166 255.956871,32.1958329 L255.956871,32.1958329 Z M122.344165,135.222498 L122.344165,85.3189571 C122.344165,67.6112491 114.295207,53.1231243 94.977707,53.1231243 C74.0504156,53.1231243 67.6112491,67.6112491 67.6112491,85.3189571 L67.6112491,135.222498 L122.344165,135.222498 L122.344165,135.222498 Z M189.955414,135.222498 L189.955414,85.3189571 C189.955414,67.6112491 181.906456,53.1231243 162.588956,53.1231243 C141.661665,53.1231243 135.222498,67.6112491 135.222498,85.3189571 L135.222498,135.222498 L189.955414,135.222498 L189.955414,135.222498 Z" fill="#DC0000"></path>
    </g>
</svg>

<svg viewBox="0 0 256 271" xmlns="http://www.w3.org/2000/svg"><path fill="#DC0000" d="M99.8 202.83c90.14 14.48 90.14-54.74 88.53-54.74H67.59s-45.08 40.24-59.57 53.12c6.43 25.75 37.02 51.51 54.73 57.95 1.6 0 33.8-51.52 37.02-56.35v0ZM54.72 32.19c0-17.71-8.05-32.2-27.37-32.2C6.42-.01-.02 14.47-.02 32.18v117.51c0 16.09 3.21 32.19 6.43 38.63l49.9-43.47c-1.61 0-1.61-99.81-1.61-112.69v0Zm201.22 0c0-17.71-8.05-32.2-27.37-32.2 -20.93-.001-27.37 14.48-27.37 32.19 0 9.65 1.6 82.09 0 127.17 0 16.09-22.54 57.95-74.06 56.34 -11.27 0-17.71 0-20.93-1.61 -3.22 4.82-27.37 46.68-28.98 48.29 9.65 3.21 30.58 8.04 49.9 8.04 86.92 0 130.39-54.74 128.78-127.18 -.001-70.84-.001-98.2-.001-111.08v0ZM122.32 135.21V85.3c0-17.71-8.05-32.2-27.37-32.2 -20.93 0-27.37 14.48-27.37 32.19v49.9h54.73v0Zm67.61 0V85.3c0-17.71-8.05-32.2-27.37-32.2 -20.93 0-27.37 14.48-27.37 32.19v49.9h54.73v0Z"/></svg>
